X:1
T:[ID 6-67]
T:[ID 6-67]
T:Bezeichnung standardisiert: Boure Boure 8.
T:Urheber unbekannt Datum in der hier transkribierten schriftlichen Quelle: 1775
C:Urheber unbekannt
C:Datum in der hier transkribierten schriftlichen Quelle: 1775
L:1/8
M:2/4
K:A
V:1 treble 
V:1
 f/e/f/g/ f2 | c/B/c/d/ c2 | AA/B/ c/B/A/D/ | C/B,/C/D/ C2 :: Cddc | cBBA | Cddc | cBBA | %8
 AD/C/ B,/C/D/B,/ | C2 C2 :| %10

